build/images/edit.svg

<?xml version="1.0" encoding="UTF-8"?>
<svg width="24px" height="24px" viewBox="0 0 24 24" version="1.1" xmlns="http://www.w3.org/2000/svg" xmlns:xlink="http://www.w3.org/1999/xlink">
    <!-- Generator: sketchtool 63.1 (101010) - https://sketch.com -->
    <title>86E54889-9F56-4FFC-8CF6-ECBFB77AC626</title>
    <desc>Created with sketchtool.</desc>
    <g id="Page-1" stroke="none" stroke-width="1" fill="none" fill-rule="evenodd">
        <g id="Kupa-shop---product" transform="translate(-1385.000000, -1128.000000)" fill="#1E7960" fill-rule="nonzero">
            <g id="edit" transform="translate(1385.000000, 1128.000000)">
                <path d="M0.895974194,23.9451871 L1.05778065,23.9451871 L8.86420645,22.2463742 C9.01625806,22.2210581 9.15716129,22.1506065 9.26864516,22.0441548 L22.4949677,8.81775484 C23.4611613,7.85365161 24.0002323,6.54232258 23.9916643,5.17749677 C23.9933419,3.80206452 23.4560516,2.48074839 22.4949677,1.49674839 C21.5309419,0.530554839 20.2196129,-0.00851612903 18.8547097,3.71590548e-05 C17.4811355,-0.0119225806 16.1636129,0.544335484 15.2144516,1.53723871 L2.02846452,14.7635613 C1.91218065,14.8571613 1.82740645,14.9842065 1.78575484,15.1275871 L0.0870193548,22.9340129 C0.0406451613,23.214271 0.13076129,23.4997935 0.329729032,23.7025548 C0.479070968,23.8549161 0.682606452,23.9421677 0.895974194,23.9451871 Z M18.8547097,1.61810761 C20.7981677,1.6179871 22.373729,3.19339355 22.3738839,5.13685161 C22.3738839,5.1504 22.3738065,5.16394839 22.3736516,5.17749677 C22.3868903,6.10335484 22.0216258,6.99452903 21.3624774,7.64477419 L16.3874323,2.62923871 C17.0428645,1.97790968 17.9306323,1.61403871 18.8547097,1.61810761 Z M15.2548645,3.80229677 L20.2299097,8.77734194 L8.70232258,20.2644387 L3.72727742,15.3298065 L15.2548645,3.80229677 Z M3.08012903,16.9477935 L7.0844129,20.9520774 L1.94756129,22.0846452 L3.08012903,16.9477935 Z" id="Shape"></path>
            </g>
        </g>
    </g>
</svg>

<svg width="24" height="24" xmlns="http://www.w3.org/2000/svg"><g id="Page-1" stroke="none" stroke-width="1" fill="none" fill-rule="evenodd"><g id="Kupa-shop---product" transform="translate(-1385 -1128)" fill="#1E7960" fill-rule="nonzero"><g id="edit" transform="translate(1385 1128)"><path d="M.896 23.945h.162l7.806-1.699a.768.768 0 00.405-.202L22.495 8.818a5.097 5.097 0 001.497-3.64 5.259 5.259 0 00-1.497-3.681A5.097 5.097 0 0018.855 0a4.976 4.976 0 00-3.64 1.537L2.027 14.764a.728.728 0 00-.242.364L.087 22.934a.89.89 0 00.243.769c.15.152.353.24.566.242zM18.855 1.618a3.519 3.519 0 013.519 3.56 3.398 3.398 0 01-1.012 2.467l-4.975-5.016a3.479 3.479 0 012.468-1.01zm-3.6 2.184l4.975 4.975L8.702 20.264 3.727 15.33 15.255 3.802zM3.08 16.948l4.004 4.004-5.136 1.133 1.132-5.137z" id="Shape"/></g></g></g></svg>
